www/assets/icons/archive.svg

<svg xmlns="http://www.w3.org/2000/svg" width="24" height="24" viewBox="0 0 24 24" fill='currentColor'><path d="m20.54 5.23-1.39-1.68C18.88 3.21 18.47 3 18 3H6c-.47 0-.88.21-1.16.55L3.46 5.23C3.17 5.57 3 6.02 3 6.5V19c0 1.1.9 2 2 2h14c1.1 0 2-.9 2-2V6.5c0-.48-.17-.93-.46-1.27M12 17.5 6.5 12H10v-2h4v2h3.5zM5.12 5l.81-1h12l.94 1z"/></svg>

<svg width="24" height="24" viewBox="0 0 24 24" xmlns="http://www.w3.org/2000/svg" fill='currentColor'><path d="M20.54 5.23L19.15 3.55C18.88 3.21 18.47 3 18 3H6C5.53 3 5.12 3.21 4.84 3.55L3.46 5.23C3.17 5.57 3 6.02 3 6.5V19C3 20.1 3.9 21 5 21H19C20.1 21 21 20.1 21 19V6.5C21 6.02 20.83 5.57 20.54 5.23ZM12 17.5L6.5 12H10V10H14V12H17.5L12 17.5ZM5.12 5L5.93 4H17.93L18.87 5H5.12Z"/></svg>
